X:847
T:Reel 847
M:4/4
K:Gmaj
L:1/8
e3f gedf|eged Bcdg|edef gabc'|d'be'd' bgaf|edef gedf|eged Bcdg|edef gabc'| (3d'c'b e'd' bgg2| (3d'e'd' bg d'gbg|d'gbg fga2|d'gbg d'gbg|d'e'd'c' bgg2| (3d'e'd' bg d'gbg|d'gbg faa2| (3d'e'd' bg afgf|gedc BAA2|
